X:1
T:Title
%%score { 1 | 2 }
L:1/8
M:6/8
K:G
V:1 treble nm="Grand Piano"
V:2 treble 
V:1
 z3 z2[Q:1/4=100] d | dBB [DB][DA][DG] | [EA][EB][Ec] .E3 | FED .[Fc]3 | [Ac][GB]A B2 d | %5
 dBB [DB][DA][DG] | [EA][EB][Ec] [CE]2 [EG] | FED [Fc]2 [DF] |[M:5/8] [B,DG]-[B,DG]- [B,DG]3 | %9
[M:1/8] G |[M:3/4] FG [FA][Ac] [GB][FA] | BG c B2 G | [EG][DF] ED GB | BA G [FA]2 [Fd] | %14
 dB B[DB] [DA][DG] | [EA][EB] [Ec] [CE]2 [EG] | FE D [Fc]2 [DF] |[M:5/8] [B,DG]-[B,DG]- [B,DG]3 |] %18
V:2
 z3 z2 [G,B,G] | [G,B,G][G,DG][G,G][K:bass] [G,,A,][A,,F,][B,,G,] | [C,C][C,C][C,G,] .[C,C]3 | %3
 [D,CD][D,G,C][D,F,] .[D,A,]3 | [D,D][E,D][F,D][K:treble] [G,DG]2 [G,B,G] | %5
 [G,B,G][G,DG][G,G][K:bass] [G,,G,][A,,F,][B,,G,] | [C,C][C,C][C,C] [C,G,]2 [C,C] | %7
 [D,CD][D,G,C][D,F,] [D,A,]2 [D,C] |[M:5/8] [G,,G,]-[G,,G,]- [G,,G,]3 |[M:1/8] [G,B,D] | %10
[M:3/4] [D,A,D][D,B,D] [D,C][D,D] [D,D][D,D] | [G,DG][G,B,D] [G,EG] [G,DG]2 [G,B,D] | %12
 [C,C][C,C] [C,C][G,B,] [G,B,D][G,D] | [E,CE][E,CE] [E,CE] [D,D]2 [D,C] | %14
 [G,B,G][G,DG] [G,G][K:bass][G,,G,] [A,,F,][B,,G,] | [C,C][C,C] [C,C] [C,G,]2 [C,C] | %16
 [D,CD][D,G,C] [D,F,] [D,A,]2 [D,C] |[M:5/8] [G,,G,]-[G,,G,]- [G,,G,]3 |] %18

